X:241
T:Lady McDonald
R:reel
N:aka Miss Mcdonald
D:Happy to Meet
Z:transcribed by Dave Marshall
M:C|
K:G
|: B~G3 BdcA | BGBd g2fg | aAAG ABcA |1 Bdeg gedc :|2 Bdeg gedB |
|: ~G3D EDEF | GAGD B,G,B,D | ~G3D EGBd |1 egdB BAA2 :|2 egdB BAAf |
| gdBd ~g3f | edef gdBd | gdBd ~g3f | edef g2gf |
gdBd gdBd | ~g3f gdBd | ~g3a gfed | egfa g2ag |
| egdB cBAB | G~B3 GBdg | egdB cBAB | GEDE EGBd |
egdB cBAB | G~B3 GBdg | edeg ~f3e | dfaf gedB ||
